alpha-i-circle.svg

<svg fill="currentColor" viewBox="0 0 24 24"><path d="M12 2a10 10 0 0 1 10 10 10 10 0 0 1-10 10A10 10 0 0 1 2 12 10 10 0 0 1 12 2m2 5h-4v2h1v6h-1v2h4v-2h-1V9h1z"/></svg>

<svg  viewBox="0 0 24 24" fill="currentColor"><path  d="M12,2A10,10 0 0,1 22,12A10,10 0 0,1 12,22A10,10 0 0,1 2,12A10,10 0 0,1 12,2M14,7H10V9H11V15H10V17H14V15H13V9H14V7Z"/></svg>
